Newaita-dark/apps/16/com.github.artemanufrij.webpin.svg

<svg height="16pt" viewBox="0 0 16 16" width="16pt" xmlns="http://www.w3.org/2000/svg" xmlns:xlink="http://www.w3.org/1999/xlink"><linearGradient id="a"><stop offset="0" stop-opacity=".313725"/><stop offset=".222222" stop-opacity=".27451"/><stop offset="1" stop-opacity="0"/></linearGradient><radialGradient id="b" cx="450.90894" cy="189.57936" gradientTransform="matrix(.00000009 -.0390662 -.0703192 -.00000005 25.073043 32.128428)" gradientUnits="userSpaceOnUse" r="21.166656" xlink:href="#a"/><radialGradient id="c" cx="450.90894" cy="189.57936" gradientTransform="matrix(-.00000009 .0390662 .0703192 .00000005 -9.858047 -3.432978)" gradientUnits="userSpaceOnUse" r="21.166656" xlink:href="#a"/><radialGradient id="d" cx="450.90894" cy="189.57936" gradientTransform="matrix(-.00000009 -.0390662 .0703192 -.00000005 -9.858047 32.128428)" gradientUnits="userSpaceOnUse" r="21.166656" xlink:href="#a"/><radialGradient id="e" cx="450.90894" cy="189.57936" gradientTransform="matrix(.00000009 .0390662 -.0703192 .00000005 25.073042 -3.432978)" gradientUnits="userSpaceOnUse" r="21.166656" xlink:href="#a"/><linearGradient id="f" gradientTransform="matrix(.00668003 0 0 .031253 5.07503 7.050154)" gradientUnits="userSpaceOnUse" x1="255.32306" x2="255.32304" y1="233.5" y2="254.66666"><stop offset="0" stop-opacity=".27451"/><stop offset="1" stop-opacity="0"/></linearGradient><linearGradient id="g" gradientUnits="userSpaceOnUse" x1="7.938262" x2="7.938262" y1="14.34772793751" y2="4.42490012498"><stop offset="0" stop-color="#42a5f5"/><stop offset="1" stop-color="#64b5f6"/></linearGradient><linearGradient id="h" gradientUnits="userSpaceOnUse" x1="7.938262" x2="7.938262" y1="13.35544556249" y2="1.44805256249"><stop offset="0" stop-color="#bdbdbd"/><stop offset="1" stop-color="#e0e0e0"/></linearGradient><path d="m11.90625 14.347656h1.324219v-.660156h-1.324219zm0 0" fill="url(#b)"/><path d="m3.308594 14.347656h-1.324219v.660156h1.324219zm0 0" fill="url(#c)"/><path d="m3.308594 14.347656h-1.324219v-.660156h1.324219zm0 0" fill="url(#d)"/><path d="m11.90625 14.347656h1.324219v.660156h-1.324219zm0 0" fill="url(#e)"/><path d="m3.308594 14.183594h8.597656v.824218h-8.597656zm0 0" fill="url(#f)"/><path d="m7.601562 4.417969c-2.566406 0-4.632812 2.183593-4.632812 4.890625v.144531c0 .085937.003906.175781.007812.261719-1.113281.074218-1.992187 1.023437-1.992187 2.195312v.234375c0 1.21875.949219 2.199219 2.128906 2.199219h1.847657v.003906h6.945312c1.832031 0 3.308594-1.476562 3.308594-3.308594 0-1.804687-1.433594-3.265624-3.226563-3.304687-.621093-1.933594-2.34375-3.316406-4.386719-3.316406zm0 0" fill="url(#g)"/><path d="m3.296875 9.71875c-1.292969 0-2.328125 1.03125-2.328125 2.3125v.105469c.054688-1.234375 1.070312-2.214844 2.328125-2.214844 1.253906 0 2.269531.980469 2.324219 2.214844 0-.035157 0-.070313 0-.105469 0-1.28125-1.035156-2.3125-2.324219-2.3125zm0 0" fill="#fafafa" fill-opacity=".392157"/><path d="m7.601562 4.417969c-2.566406 0-4.632812 2.183593-4.632812 4.890625v.144531.050781c.03125-2.679687 2.085938-4.832031 4.632812-4.832031 2.042969 0 3.765626 1.382813 4.386719 3.3125 1.75.042969 3.160157 1.433594 3.222657 3.179687.003906-.039062.003906-.082031.003906-.125 0-1.804687-1.433594-3.265624-3.226563-3.304687-.621093-1.933594-2.34375-3.316406-4.386719-3.316406zm-4.632812 5.296875c-1.109375.078125-1.984375 1.027344-1.984375 2.195312v.234375.007813c.007813-1.164063.878906-2.109375 1.992187-2.183594-.003906-.082031-.007812-.167969-.007812-.253906zm0 0" fill="#fff" fill-opacity=".392157"/><path d="m2.96875 9.253906v.054688.144531.011719c.003906 0 .007812 0 .007812-.003906-.003906-.066407-.003906-.136719-.007812-.207032zm12.242188 1.660156c-.0625 1.773438-1.511719 3.179688-3.304688 3.179688h-6.945312v-.003906h-1.847657c-1.175781 0-2.121093-.976563-2.128906-2.191406v.011718.234375c0 1.21875.949219 2.199219 2.128906 2.199219h1.847657v.003906h6.945312c1.832031 0 3.308594-1.476562 3.308594-3.308594 0-.042968 0-.085937-.003906-.125zm0 0" fill-opacity=".235294"/><path d="m11.988281 7.734375c-1.785156 0-3.222656 1.472656-3.222656 3.304687v.125c.066406-1.773437 1.476563-3.183593 3.222656-3.183593 1.746094 0 3.160157 1.410156 3.222657 3.183593.003906-.042968.003906-.082031.003906-.125 0-1.832031-1.4375-3.304687-3.226563-3.304687zm0 0" fill="#fafafa" fill-opacity=".392157"/><path d="m7.601562 4.371094c-2.59375 0-4.679687 2.207031-4.679687 4.9375v.144531c0 .074219.003906.148437.007813.222656-1.117188.09375-1.992188 1.054688-1.992188 2.234375v.234375c0 1.242188.96875 2.246094 2.175781 2.246094h1.828125c.007813 0 .011719.003906.019532.003906h6.945312c1.859375 0 3.355469-1.496093 3.355469-3.355469 0-1.820312-1.4375-3.292968-3.242188-3.351562-.632812-1.933594-2.367187-3.316406-4.417969-3.316406zm0 .09375c2.019532 0 3.726563 1.371094 4.339844 3.28125.007813.019531.023438.03125.042969.035156 1.773437.039062 3.183594 1.476562 3.183594 3.257812 0 1.808594-1.453125 3.261719-3.261719 3.261719h-6.925781c-.003907-.003906-.011719-.003906-.019531-.003906h-1.847657c-1.152343 0-2.082031-.960937-2.082031-2.152344v-.234375c0-1.148437.859375-2.078125 1.949219-2.148437.023437 0 .042969-.023438.042969-.046875-.003907-.089844-.007813-.175782-.007813-.261719v-.144531c0-2.683594 2.046875-4.84375 4.585937-4.84375zm0 0" fill="#212121"/><path d="m4.070312 1.367188c-.417968-.007813-.773437.300781-.824218.71875-.46875 3.492187.441406 7.035156 1.070312 9.777343.074219.324219.335938.570313.664063.621094s.65625-.101563.824219-.390625l2.050781-3.449219 1.058593 3.871094c.085938.320313.359376.554687.691407.59375.328125.035156.648437-.132813.804687-.425781 1.335938-2.484375 3.175782-5.800782 3.625-9.140625.042969-.292969-.074218-.582031-.304687-.761719s-.539063-.222656-.808594-.109375c-.273437.113281-.460937.363281-.496094.652344-.300781 2.226562-1.390625 4.644531-2.488281 6.777343l-1.019531-3.734374c-.089844-.3125-.355469-.546876-.675781-.589844-.324219-.042969-.640626.109375-.808594.390625l-1.980469 3.339843c-.496094-2.308593-.914063-4.84375-.59375-7.207031.03125-.230469-.035156-.464843-.183594-.644531-.152343-.179688-.371093-.28125-.605469-.289062zm0 0" fill="url(#h)"/><path d="m4.070312 1.367188c-.417968-.007813-.773437.304687-.824218.71875-.09375.714843-.132813 1.429687-.128906 2.140624.003906-.628906.042968-1.257812.128906-1.890624.050781-.414063.40625-.722657.824218-.714844.394532.007812.726563.296875.785157.6875 0-.003906.003906-.003906.003906-.007813.03125-.230469-.035156-.464843-.183594-.644531-.152343-.179688-.371093-.28125-.605469-.289062zm9.175782 1.242187c-.417969-.007813-.769532.300781-.820313.714844-.300781 2.226562-1.390625 4.644531-2.488281 6.777343l-1.019531-3.734374c-.089844-.3125-.355469-.546876-.675781-.589844-.324219-.042969-.640626.109375-.808594.390625l-1.980469 3.339843c-.363281-1.683593-.683594-3.484374-.707031-5.253906v.332032c0-.027344 0-.054688 0-.078126.023437 1.765626.34375 3.570313.707031 5.25l1.980469-3.335937c.167968-.28125.484375-.4375.808594-.390625.320312.042969.585937.273438.675781.589844l1.019531 3.734375c1.097656-2.132813 2.1875-4.550781 2.488281-6.777344.050781-.414063.402344-.722656.820313-.714844.394531.007813.726562.296875.789062.6875 0-.003906 0-.007812 0-.007812.035156-.234375-.03125-.46875-.183594-.644531-.152343-.179688-.371093-.285157-.605468-.289063zm0 0" fill="#fff" fill-opacity=".784314"/><path d="m3.375 7.296875c-.015625.039063-.03125.078125-.046875.117187.246094 1.769532.65625 3.441407.988281 4.886719.074219.324219.335938.570313.664063.625.328125.050781.65625-.105469.824219-.390625l2.050781-3.449218 1.058593 3.871093c.085938.320313.359376.554688.691407.589844.328125.039063.648437-.128906.804687-.421875.808594-1.496094 1.792969-3.296875 2.550782-5.222656-.054688-.019532-.105469-.035156-.160157-.050782-.730469 1.777344-1.636719 3.4375-2.390625 4.832032-.15625.292968-.476562.460937-.804687.425781-.332031-.039063-.605469-.273437-.691407-.59375l-1.058593-3.871094-2.050781 3.449219c-.167969.289062-.496094.441406-.824219.390625s-.589844-.296875-.664063-.621094c-.3125-1.359375-.691406-2.914062-.941406-4.566406zm0 0" fill-opacity=".235294"/><path d="m130.237563-171.254178c-13.373723-.249976-24.747637 9.624081-26.372482 22.997804-14.998567 111.73933 14.123652 225.103504 34.24673 312.845125 2.374773 10.374009 10.748974 18.248257 21.247971 19.873102s20.997995-3.249689 26.372481-12.498806l65.618734-110.364461 33.871766 123.863172c2.749737 10.249021 11.498901 17.748305 22.122887 18.998186 10.498997 1.124892 20.748019-4.249595 25.747541-13.623699 42.745918-79.492409 101.615296-185.607276 115.988924-292.472071 1.374869-9.374105-2.374773-18.623221-9.749069-24.372672s-17.248353-7.12432-25.87253-3.499666c-8.749164 3.624654-14.748591 11.62389-15.873484 20.873007-9.624081 71.243196-44.495751 148.610808-79.617397 216.854291l-32.621884-119.488589c-2.874726-9.999045-11.373914-17.498329-21.622935-18.873198-10.37401-1.374869-20.498043 3.499666-25.87253 12.498806l-63.368948 106.864795c-15.873484-73.867946-29.247207-154.985199-18.998186-230.602978.999904-7.374296-1.124893-14.87358-5.874439-20.623031-4.874535-5.749451-11.873866-8.99914-19.37315-9.249117zm0 0" fill="none" stroke="#212121" stroke-linecap="round" stroke-linejoin="round" stroke-width="3" transform="matrix(.031253 0 0 .031253 0 6.719392)"/></svg>

<?xml version="1.0" encoding="UTF-8"?>
<svg xmlns="http://www.w3.org/2000/svg" xmlns:xlink="http://www.w3.org/1999/xlink" width="16pt" height="16pt" viewBox="0 0 16 16" version="1.1">
<defs>
<radialGradient id="radial0" gradientUnits="userSpaceOnUse" cx="450.90894" cy="189.57936" fx="450.90894" fy="189.57936" r="21.166656" gradientTransform="matrix(0.0000000870852,-0.0390662,-0.0703192,-0.0000000507693,25.073043,32.128428)">
<stop offset="0" style="stop-color:rgb(0%,0%,0%);stop-opacity:0.313725;"/>
<stop offset="0.222222" style="stop-color:rgb(0%,0%,0%);stop-opacity:0.27451;"/>
<stop offset="1" style="stop-color:rgb(0%,0%,0%);stop-opacity:0;"/>
</radialGradient>
<radialGradient id="radial1" gradientUnits="userSpaceOnUse" cx="450.90894" cy="189.57936" fx="450.90894" fy="189.57936" r="21.166656" gradientTransform="matrix(-0.0000000870852,0.0390662,0.0703192,0.0000000507693,-9.858047,-3.432978)">
<stop offset="0" style="stop-color:rgb(0%,0%,0%);stop-opacity:0.313725;"/>
<stop offset="0.222222" style="stop-color:rgb(0%,0%,0%);stop-opacity:0.27451;"/>
<stop offset="1" style="stop-color:rgb(0%,0%,0%);stop-opacity:0;"/>
</radialGradient>
<radialGradient id="radial2" gradientUnits="userSpaceOnUse" cx="450.90894" cy="189.57936" fx="450.90894" fy="189.57936" r="21.166656" gradientTransform="matrix(-0.0000000870852,-0.0390662,0.0703192,-0.0000000507693,-9.858047,32.128428)">
<stop offset="0" style="stop-color:rgb(0%,0%,0%);stop-opacity:0.313725;"/>
<stop offset="0.222222" style="stop-color:rgb(0%,0%,0%);stop-opacity:0.27451;"/>
<stop offset="1" style="stop-color:rgb(0%,0%,0%);stop-opacity:0;"/>
</radialGradient>
<radialGradient id="radial3" gradientUnits="userSpaceOnUse" cx="450.90894" cy="189.57936" fx="450.90894" fy="189.57936" r="21.166656" gradientTransform="matrix(0.0000000870852,0.0390662,-0.0703192,0.0000000507693,25.073042,-3.432978)">
<stop offset="0" style="stop-color:rgb(0%,0%,0%);stop-opacity:0.313725;"/>
<stop offset="0.222222" style="stop-color:rgb(0%,0%,0%);stop-opacity:0.27451;"/>
<stop offset="1" style="stop-color:rgb(0%,0%,0%);stop-opacity:0;"/>
</radialGradient>
<linearGradient id="linear0" gradientUnits="userSpaceOnUse" x1="255.32306" y1="233.5" x2="255.32304" y2="254.66666" gradientTransform="matrix(0.00668003,0,0,0.031253,5.07503,7.050154)">
<stop offset="0" style="stop-color:rgb(0%,0%,0%);stop-opacity:0.27451;"/>
<stop offset="1" style="stop-color:rgb(0%,0%,0%);stop-opacity:0;"/>
</linearGradient>
<linearGradient id="linear1" gradientUnits="userSpaceOnUse" x1="254" y1="191.16667" x2="254" y2="-126.33334" gradientTransform="matrix(0.031253,0,0,0.031253,0,8.373196)">
<stop offset="0" style="stop-color:rgb(25.882353%,64.705882%,96.078431%);stop-opacity:1;"/>
<stop offset="1" style="stop-color:rgb(39.215686%,70.980392%,96.470588%);stop-opacity:1;"/>
</linearGradient>
<linearGradient id="linear2" gradientUnits="userSpaceOnUse" x1="254" y1="212.33333" x2="254" y2="-168.66667" gradientTransform="matrix(0.031253,0,0,0.031253,0,6.719392)">
<stop offset="0" style="stop-color:rgb(74.117647%,74.117647%,74.117647%);stop-opacity:1;"/>
<stop offset="1" style="stop-color:rgb(87.843137%,87.843137%,87.843137%);stop-opacity:1;"/>
</linearGradient>
</defs>
<g id="surface1">
<path style=" stroke:none;fill-rule:nonzero;fill:url(#radial0);" d="M 11.90625 14.347656 L 13.230469 14.347656 L 13.230469 13.6875 L 11.90625 13.6875 Z M 11.90625 14.347656 "/>
<path style=" stroke:none;fill-rule:nonzero;fill:url(#radial1);" d="M 3.308594 14.347656 L 1.984375 14.347656 L 1.984375 15.007812 L 3.308594 15.007812 Z M 3.308594 14.347656 "/>
<path style=" stroke:none;fill-rule:nonzero;fill:url(#radial2);" d="M 3.308594 14.347656 L 1.984375 14.347656 L 1.984375 13.6875 L 3.308594 13.6875 Z M 3.308594 14.347656 "/>
<path style=" stroke:none;fill-rule:nonzero;fill:url(#radial3);" d="M 11.90625 14.347656 L 13.230469 14.347656 L 13.230469 15.007812 L 11.90625 15.007812 Z M 11.90625 14.347656 "/>
<path style=" stroke:none;fill-rule:nonzero;fill:url(#linear0);" d="M 3.308594 14.183594 L 11.90625 14.183594 L 11.90625 15.007812 L 3.308594 15.007812 Z M 3.308594 14.183594 "/>
<path style=" stroke:none;fill-rule:nonzero;fill:url(#linear1);" d="M 7.601562 4.417969 C 5.035156 4.417969 2.96875 6.601562 2.96875 9.308594 L 2.96875 9.453125 C 2.96875 9.539062 2.972656 9.628906 2.976562 9.714844 C 1.863281 9.789062 0.984375 10.738281 0.984375 11.910156 L 0.984375 12.144531 C 0.984375 13.363281 1.933594 14.34375 3.113281 14.34375 L 4.960938 14.34375 L 4.960938 14.347656 L 11.90625 14.347656 C 13.738281 14.347656 15.214844 12.871094 15.214844 11.039062 C 15.214844 9.234375 13.78125 7.773438 11.988281 7.734375 C 11.367188 5.800781 9.644531 4.417969 7.601562 4.417969 Z M 7.601562 4.417969 "/>
<path style=" stroke:none;fill-rule:nonzero;fill:rgb(98.039216%,98.039216%,98.039216%);fill-opacity:0.392157;" d="M 3.296875 9.71875 C 2.003906 9.71875 0.96875 10.75 0.96875 12.03125 C 0.96875 12.066406 0.96875 12.101562 0.96875 12.136719 C 1.023438 10.902344 2.039062 9.921875 3.296875 9.921875 C 4.550781 9.921875 5.566406 10.902344 5.621094 12.136719 C 5.621094 12.101562 5.621094 12.066406 5.621094 12.03125 C 5.621094 10.75 4.585938 9.71875 3.296875 9.71875 Z M 3.296875 9.71875 "/>
<path style=" stroke:none;fill-rule:nonzero;fill:rgb(100%,100%,100%);fill-opacity:0.392157;" d="M 7.601562 4.417969 C 5.035156 4.417969 2.96875 6.601562 2.96875 9.308594 L 2.96875 9.453125 C 2.96875 9.46875 2.96875 9.488281 2.96875 9.503906 C 3 6.824219 5.054688 4.671875 7.601562 4.671875 C 9.644531 4.671875 11.367188 6.054688 11.988281 7.984375 C 13.738281 8.027344 15.148438 9.417969 15.210938 11.164062 C 15.214844 11.125 15.214844 11.082031 15.214844 11.039062 C 15.214844 9.234375 13.78125 7.773438 11.988281 7.734375 C 11.367188 5.800781 9.644531 4.417969 7.601562 4.417969 Z M 2.96875 9.714844 C 1.859375 9.792969 0.984375 10.742188 0.984375 11.910156 L 0.984375 12.144531 C 0.984375 12.148438 0.984375 12.152344 0.984375 12.152344 C 0.992188 10.988281 1.863281 10.042969 2.976562 9.96875 C 2.972656 9.886719 2.96875 9.800781 2.96875 9.714844 Z M 2.96875 9.714844 "/>
<path style=" stroke:none;fill-rule:nonzero;fill:rgb(0%,0%,0%);fill-opacity:0.235294;" d="M 2.96875 9.253906 C 2.96875 9.269531 2.96875 9.289062 2.96875 9.308594 L 2.96875 9.453125 C 2.96875 9.457031 2.96875 9.460938 2.96875 9.464844 C 2.972656 9.464844 2.976562 9.464844 2.976562 9.460938 C 2.972656 9.394531 2.972656 9.324219 2.96875 9.253906 Z M 15.210938 10.914062 C 15.148438 12.6875 13.699219 14.09375 11.90625 14.09375 L 4.960938 14.09375 L 4.960938 14.089844 L 3.113281 14.089844 C 1.9375 14.089844 0.992188 13.113281 0.984375 11.898438 C 0.984375 11.902344 0.984375 11.90625 0.984375 11.910156 L 0.984375 12.144531 C 0.984375 13.363281 1.933594 14.34375 3.113281 14.34375 L 4.960938 14.34375 L 4.960938 14.347656 L 11.90625 14.347656 C 13.738281 14.347656 15.214844 12.871094 15.214844 11.039062 C 15.214844 10.996094 15.214844 10.953125 15.210938 10.914062 Z M 15.210938 10.914062 "/>
<path style=" stroke:none;fill-rule:nonzero;fill:rgb(98.039216%,98.039216%,98.039216%);fill-opacity:0.392157;" d="M 11.988281 7.734375 C 10.203125 7.734375 8.765625 9.207031 8.765625 11.039062 C 8.765625 11.082031 8.765625 11.121094 8.765625 11.164062 C 8.832031 9.390625 10.242188 7.980469 11.988281 7.980469 C 13.734375 7.980469 15.148438 9.390625 15.210938 11.164062 C 15.214844 11.121094 15.214844 11.082031 15.214844 11.039062 C 15.214844 9.207031 13.777344 7.734375 11.988281 7.734375 Z M 11.988281 7.734375 "/>
<path style=" stroke:none;fill-rule:nonzero;fill:rgb(12.941176%,12.941176%,12.941176%);fill-opacity:1;" d="M 7.601562 4.371094 C 5.007812 4.371094 2.921875 6.578125 2.921875 9.308594 L 2.921875 9.453125 C 2.921875 9.527344 2.925781 9.601562 2.929688 9.675781 C 1.8125 9.769531 0.9375 10.730469 0.9375 11.910156 L 0.9375 12.144531 C 0.9375 13.386719 1.90625 14.390625 3.113281 14.390625 L 4.941406 14.390625 C 4.949219 14.390625 4.953125 14.394531 4.960938 14.394531 L 11.90625 14.394531 C 13.765625 14.394531 15.261719 12.898438 15.261719 11.039062 C 15.261719 9.21875 13.824219 7.746094 12.019531 7.6875 C 11.386719 5.753906 9.652344 4.371094 7.601562 4.371094 Z M 7.601562 4.464844 C 9.621094 4.464844 11.328125 5.835938 11.941406 7.746094 C 11.949219 7.765625 11.964844 7.777344 11.984375 7.78125 C 13.757812 7.820312 15.167969 9.257812 15.167969 11.039062 C 15.167969 12.847656 13.714844 14.300781 11.90625 14.300781 L 4.980469 14.300781 C 4.976562 14.296875 4.96875 14.296875 4.960938 14.296875 L 3.113281 14.296875 C 1.960938 14.296875 1.03125 13.335938 1.03125 12.144531 L 1.03125 11.910156 C 1.03125 10.761719 1.890625 9.832031 2.980469 9.761719 C 3.003906 9.761719 3.023438 9.738281 3.023438 9.714844 C 3.019531 9.625 3.015625 9.539062 3.015625 9.453125 L 3.015625 9.308594 C 3.015625 6.625 5.0625 4.464844 7.601562 4.464844 Z M 7.601562 4.464844 "/>
<path style=" stroke:none;fill-rule:nonzero;fill:url(#linear2);" d="M 4.070312 1.367188 C 3.652344 1.359375 3.296875 1.667969 3.246094 2.085938 C 2.777344 5.578125 3.6875 9.121094 4.316406 11.863281 C 4.390625 12.1875 4.652344 12.433594 4.980469 12.484375 C 5.308594 12.535156 5.636719 12.382812 5.804688 12.09375 L 7.855469 8.644531 L 8.914062 12.515625 C 9 12.835938 9.273438 13.070312 9.605469 13.109375 C 9.933594 13.144531 10.253906 12.976562 10.410156 12.683594 C 11.746094 10.199219 13.585938 6.882812 14.035156 3.542969 C 14.078125 3.25 13.960938 2.960938 13.730469 2.78125 C 13.5 2.601562 13.191406 2.558594 12.921875 2.671875 C 12.648438 2.785156 12.460938 3.035156 12.425781 3.324219 C 12.125 5.550781 11.035156 7.96875 9.9375 10.101562 L 8.917969 6.367188 C 8.828125 6.054688 8.5625 5.820312 8.242188 5.777344 C 7.917969 5.734375 7.601562 5.886719 7.433594 6.167969 L 5.453125 9.507812 C 4.957031 7.199219 4.539062 4.664062 4.859375 2.300781 C 4.890625 2.070312 4.824219 1.835938 4.675781 1.65625 C 4.523438 1.476562 4.304688 1.375 4.070312 1.367188 Z M 4.070312 1.367188 "/>
<path style=" stroke:none;fill-rule:nonzero;fill:rgb(100%,100%,100%);fill-opacity:0.784314;" d="M 4.070312 1.367188 C 3.652344 1.359375 3.296875 1.671875 3.246094 2.085938 C 3.152344 2.800781 3.113281 3.515625 3.117188 4.226562 C 3.121094 3.597656 3.160156 2.96875 3.246094 2.335938 C 3.296875 1.921875 3.652344 1.613281 4.070312 1.621094 C 4.464844 1.628906 4.796875 1.917969 4.855469 2.308594 C 4.855469 2.304688 4.859375 2.304688 4.859375 2.300781 C 4.890625 2.070312 4.824219 1.835938 4.675781 1.65625 C 4.523438 1.476562 4.304688 1.375 4.070312 1.367188 Z M 13.246094 2.609375 C 12.828125 2.601562 12.476562 2.910156 12.425781 3.324219 C 12.125 5.550781 11.035156 7.96875 9.9375 10.101562 L 8.917969 6.367188 C 8.828125 6.054688 8.5625 5.820312 8.242188 5.777344 C 7.917969 5.734375 7.601562 5.886719 7.433594 6.167969 L 5.453125 9.507812 C 5.089844 7.824219 4.769531 6.023438 4.746094 4.253906 C 4.746094 4.363281 4.746094 4.472656 4.746094 4.585938 C 4.746094 4.558594 4.746094 4.53125 4.746094 4.507812 C 4.769531 6.273438 5.089844 8.078125 5.453125 9.757812 L 7.433594 6.421875 C 7.601562 6.140625 7.917969 5.984375 8.242188 6.03125 C 8.5625 6.074219 8.828125 6.304688 8.917969 6.621094 L 9.9375 10.355469 C 11.035156 8.222656 12.125 5.804688 12.425781 3.578125 C 12.476562 3.164062 12.828125 2.855469 13.246094 2.863281 C 13.640625 2.871094 13.972656 3.160156 14.035156 3.550781 C 14.035156 3.546875 14.035156 3.542969 14.035156 3.542969 C 14.070312 3.308594 14.003906 3.074219 13.851562 2.898438 C 13.699219 2.71875 13.480469 2.613281 13.246094 2.609375 Z M 13.246094 2.609375 "/>
<path style=" stroke:none;fill-rule:nonzero;fill:rgb(0%,0%,0%);fill-opacity:0.235294;" d="M 3.375 7.296875 C 3.359375 7.335938 3.34375 7.375 3.328125 7.414062 C 3.574219 9.183594 3.984375 10.855469 4.316406 12.300781 C 4.390625 12.625 4.652344 12.871094 4.980469 12.925781 C 5.308594 12.976562 5.636719 12.820312 5.804688 12.535156 L 7.855469 9.085938 L 8.914062 12.957031 C 9 13.277344 9.273438 13.511719 9.605469 13.546875 C 9.933594 13.585938 10.253906 13.417969 10.410156 13.125 C 11.21875 11.628906 12.203125 9.828125 12.960938 7.902344 C 12.90625 7.882812 12.855469 7.867188 12.800781 7.851562 C 12.070312 9.628906 11.164062 11.289062 10.410156 12.683594 C 10.253906 12.976562 9.933594 13.144531 9.605469 13.109375 C 9.273438 13.070312 9 12.835938 8.914062 12.515625 L 7.855469 8.644531 L 5.804688 12.09375 C 5.636719 12.382812 5.308594 12.535156 4.980469 12.484375 C 4.652344 12.433594 4.390625 12.1875 4.316406 11.863281 C 4.003906 10.503906 3.625 8.949219 3.375 7.296875 Z M 3.375 7.296875 "/>
<path style="fill:none;stroke-width:3;stroke-linecap:round;stroke-linejoin:round;stroke:rgb(12.941176%,12.941176%,12.941176%);stroke-opacity:1;stroke-miterlimit:4;" d="M 130.237563 -171.254178 C 116.86384 -171.504154 105.489926 -161.630097 103.865081 -148.256374 C 88.866514 -36.517044 117.988733 76.84713 138.111811 164.588751 C 140.486584 174.96276 148.860785 182.837008 159.359782 184.461853 C 169.858779 186.086698 180.357777 181.212164 185.732263 171.963047 L 251.350997 61.598586 L 285.222763 185.461758 C 287.9725 195.710779 296.721664 203.210063 307.34565 204.459944 C 317.844647 205.584836 328.093669 200.210349 333.093191 190.836245 C 375.839109 111.343836 434.708487 5.228969 449.082115 -101.635826 C 450.456984 -111.009931 446.707342 -120.259047 439.333046 -126.008498 C 431.95875 -131.757949 422.084693 -133.132818 413.460516 -129.508164 C 404.711352 -125.88351 398.711925 -117.884274 397.587032 -108.635157 C 387.962951 -37.391961 353.091281 39.975651 317.969635 108.219134 L 285.347751 -11.269455 C 282.473025 -21.2685 273.973837 -28.767784 263.724816 -30.142653 C 253.350806 -31.517522 243.226773 -26.642987 237.852286 -17.643847 L 174.483338 89.220948 C 158.609854 15.353002 145.236131 -65.764251 155.485152 -141.38203 C 156.485056 -148.756326 154.360259 -156.25561 149.610713 -162.005061 C 144.736178 -167.754512 137.736847 -171.004201 130.237563 -171.254178 Z M 130.237563 -171.254178 " transform="matrix(0.031253,0,0,0.031253,0,6.719392)"/>
</g>
</svg>
